build/flags/Mauritius.svg

<svg xmlns="http://www.w3.org/2000/svg" fill="none" viewBox="0 0 28 28" focusable="false"><defs><filter id="Mauritius_svg__a"><feColorMatrix values="0 0 0 0 1 0 0 0 0 1 0 0 0 0 1 0 0 0 1 0"/></filter></defs><mask id="Mauritius_svg__b" width="28" height="20" x="0" y="4" maskUnits="userSpaceOnUse"><g filter="url(#Mauritius_svg__a)"><rect width="28" height="20" y="4" fill="#FFF" rx="3"/><rect width="28" height="20" y="4" stroke="#969696" stroke-opacity="0" stroke-width="0" rx="3"/></g></mask><path fill="none" d="M0 0H28V28H0z"/><rect width="28" height="20" y="4" fill="#FFF" rx="3"/><rect width="28" height="20" y="4" rx="3"/><g mask="url(#Mauritius_svg__b)"><path fill="#1DBB63" fill-rule="evenodd" d="M0 24L28 24L28 20L0 20L0 24Z"/><path d="M28 24L28 20L0 20L0 24L28 24Z"/><path fill="#222B82" fill-rule="evenodd" d="M0 14.6666L28 14.6666L28 9.33331L0 9.33331L0 14.6666Z"/><path d="M28 14.6666L28 9.33331L0 9.33331L0 14.6666L28 14.6666Z"/><path fill="#FFD741" fill-rule="evenodd" d="M0 20L28 20L28 14.6667L0 14.6667L0 20Z"/><path d="M28 20L28 14.6667L0 14.6667L0 20L28 20Z"/><path fill="#F4374A" fill-rule="evenodd" d="M0 9.33333L28 9.33333L28 4L0 4L0 9.33333Z"/><path d="M28 9.33333L28 4L0 4L0 9.33333L28 9.33333Z"/></g></svg>

<svg xmlns="http://www.w3.org/2000/svg" fill="none" viewBox="0 0 28 28" focusable="false"><path fill="none" d="M0 0h28v28H0z"/><rect width="28" height="20" y="4" fill="#FFF" rx="3"/><rect width="28" height="20" y="4" rx="3"/><mask id="Mauritius_svg__a" width="28" height="20" x="0" y="4" mask-type="alpha" maskUnits="userSpaceOnUse"><rect width="28" height="20" y="4" fill="#FFF" rx="3"/><rect width="28" height="20" y="4" stroke="#979797" stroke-opacity="0" stroke-width="0" rx="3"/></mask><g mask="url(#Mauritius_svg__a)"><path fill="#1DBB63" fill-rule="evenodd" d="M0 24h28v-4H0z"/><path d="M28 24v-4H0v4z"/></g><g mask="url(#Mauritius_svg__a)"><path fill="#222B82" fill-rule="evenodd" d="M0 14.66h28V9.33H0z"/><path d="M28 14.66V9.33H0v5.33z"/></g><g mask="url(#Mauritius_svg__a)"><path fill="#FFD741" fill-rule="evenodd" d="M0 20h28v-5.34H0z"/><path d="M28 20v-5.34H0V20z"/></g><g mask="url(#Mauritius_svg__a)"><path fill="#F4374A" fill-rule="evenodd" d="M0 9.33h28V4H0z"/><path d="M28 9.33V4H0v5.33z"/></g></svg>
